X: 13
T: The Munster Cloak
B: begged borrowed and stolen
M:3/4
L:1/8
R: Waltz
Q: 1/4=100
K:G
V:1 
|:"G"G2GA BG|"D"A2AB cA|"G"G2GA Bd|"D"c2A2F2|
"G"G2GA BG|"D"A2AB cA|d2de fd|c2A2F2:|
|:"G"g2ga gf|"D"d2g2a2|"G"b2a2g2|"D"f2g2a2|
"G"b2a2g2|"D"f2de fd|dc Ad cA|A2G2G2:|
% abcbook-tune_id 62828a3a667521e3bb5d9fef


% abcbook-boost 0
% abcbook-tablature 
% abcbook-transpose 
% abcbook-lastupdated 1652725431049
% abcbook-soundfonts 
% abcbook-repeats 3
% abc-sessionorg_id 
% abc-sessionorg_setting 0
% abc-sessionorg_setting_id undefined
% abc-boost 1
% Rhythm Waltz
% Titles One title
% Transcriptions Only 1 transcription
% Movement Has some stepwise movement
% Mode major
% Key G
% Time_signature 3/4
% Has_accompaniment_chords No chords

